icons/media-strip-1.svg

<svg fill="none" viewBox="0 0 24 24"><path stroke="currentColor" stroke-linecap="round" stroke-linejoin="round" stroke-width="2" d="M3 7.2h18m-18 9.6h18m-9-14.4v19.2m4.8-19.2v4.8m0 9.6v4.8m-9.6-19.2v4.8m0 9.6v4.8m-1.2-19.2h12a3.6 3.6 0 0 1 3.6 3.6v12a3.6 3.6 0 0 1-3.6 3.6h-12a3.6 3.6 0 0 1-3.6-3.6v-12a3.6 3.6 0 0 1 3.6-3.6Z"/></svg>

<svg fill="none" viewBox="0 0 24 24"><path stroke="currentColor" stroke-linecap="round" stroke-linejoin="round" stroke-width="2" d="M3 7.2h18M3 16.8h18M12 2.4v19.2m4.8-19.2v4.8m0 9.6v4.8M7.2 2.4v4.8m0 9.6v4.8M6 2.4h12A3.6 3.6 0 0 1 21.6 6v12a3.6 3.6 0 0 1-3.6 3.6H6A3.6 3.6 0 0 1 2.4 18V6A3.6 3.6 0 0 1 6 2.4"/></svg>
